assets/content/arrow-down-form.svg

<svg fill="none" height="24" viewBox="0 0 24 24" width="24" xmlns="http://www.w3.org/2000/svg" xmlns:xlink="http://www.w3.org/1999/xlink"><clipPath id="a"><path d="m0 0h24v24h-24z"/></clipPath><g clip-path="url(#a)"><path d="m15.88 9.28859-3.88 3.88001-3.88002-3.88001c-.39-.39-1.02-.39-1.41 0s-.39 1.02001 0 1.41001l4.59002 4.59c.39.39 1.02.39 1.41 0l4.59-4.59c.39-.39.39-1.02001 0-1.41001-.39-.38-1.03-.39-1.42 0z" fill="#bdbdbd"/></g></svg>

<svg width="24" height="24" viewBox="0 0 24 24" fill="none" xmlns="http://www.w3.org/2000/svg">
<g clip-path="url(#clip0_92_1884)">
<path d="M15.88 9.28859L12 13.1686L8.11998 9.28859C7.72998 8.89859 7.09998 8.89859 6.70998 9.28859C6.31998 9.67859 6.31998 10.3086 6.70998 10.6986L11.3 15.2886C11.69 15.6786 12.32 15.6786 12.71 15.2886L17.3 10.6986C17.69 10.3086 17.69 9.67859 17.3 9.28859C16.91 8.90859 16.27 8.89859 15.88 9.28859Z" fill="#BDBDBD"/>
</g>
<defs>
<clipPath id="clip0_92_1884">
<rect width="24" height="24" fill="white"/>
</clipPath>
</defs>
</svg>
